X:507
T:MacKenzie's Rant
R:Strathspey
B:The Athole Collection
M:C|
L:1/8
K:A Minor
e|A<A c>d e>A c>e|G<G B>A G2 G|A<A c>d e>Ac>e|a>e g>B A2A:|
e|c>BA>^g a<e g>B|GGB>A G2 G>B|c>B Af/^g/ a>eg>B|a>egB A2 A>e|
c>BA>^g a>eg>B|G<G B>A G>AB>G|A>Bc>e d>eg>a|g<e g>B A2A||

